X: 640
T: Adelaide Clipper, The
R: waltz
M: 3/4
K: Gmajor
DG/A/|:B2 Bd BG|E2 D2 GA|B2 Bd GB|A2 A2 GA|
B2 BG AG|E2 D2 GA|B2 BG AG|1 G2 G2 DG/A/:|2 G2 GA Bd||
|:e2 eg ed|B2 BA Bd|e2 eg ab|(g2 g)d ed|
B2 Bd BG|E2 D2 GA|B2 BG AG|1 G2 GA Bd:|2 G2 G2 DG/A/||

